X: 11534
T: Eddie Moloney's Favourite
R: reel
M: 4/4
K: Edorian
B2GB EBGB|BAFA DAFA|B2GB EFGA|(3Bcd ed Bded|
~B3B dBGB|A2FA dAFA|BEED EFGA|(3Bcd ed Bdef||
~g3f gfed|~B3A Bdef|gbef fefd|(3Bcd Ad BE~E2|
~g3f gfed|B2AB GBAG|~E3F GFGA|(3Bcd ed BdAd||

